X:1
T:Calaveras, 87.87.87
T:Calaveras, 87.87.87
T:Lowell Mason, 1863
T:Public Domain Courtesy of the Cyber Hymnal™
C:Lowell Mason, 1863
Z:Public Domain
Z:Courtesy of the Cyber Hymnal™
%%score ( 1 2 ) ( 3 4 )
L:1/8
Q:1/4=155
M:3/2
K:E
V:1 treble 
V:2 treble 
V:3 bass 
V:4 bass 
V:1
|: E2 [EG]2 | [EB]4 [EB]4 [Ec]2 [EB]2 | [EB]4 [EG]4 [FB]2 [EG]2 | [DF]2 [FB]2 [F^A]4 [Ec]4 | %4
 [DB]8 :| [EG]2 [EB]2 | [Ec]4 [Ec]4 | [Ee]2 [Ec]2 | [Ec]4 [EB]4 [Ee]2 [Ec]2 | %9
 [EB]2 [EA]2 [EG]4 [DF]4 | E8 |] %11
V:2
|: E2 x2 | x12 | x12 | x12 | x8 :| x4 | x8 | x4 | x12 | x12 | E8 |] %11
V:3
|: E,2 E,2 | [E,G,]4 [E,G,]4 [E,A,]2 [E,G,]2 | [E,G,]4 [E,B,]4 [D,B,]2 [E,B,]2 | %3
 [B,,B,]2 [D,B,]2 [F,C]4 [F,^A,]4 | [B,,B,]8 :| E,2 E,2 | [A,,A,]4 [A,,A,]4 | [A,,C]2 [C,A,]2 | %8
 [E,A,]4 [E,G,]4 [A,,C]2 [C,A,]2 | E,2 [A,,C]2 [B,,B,]4 [B,,A,]4 | [E,G,]8 |] %11
V:4
|: E,2 E,2 | x12 | x12 | x12 | x8 :| E,2 E,2 | x8 | x4 | x12 | E,2 x10 | x8 |] %11

